X:1
T:Title
%%score [ ( 1 2 ) ( 3 4 ) ] { ( 5 6 ) | ( 7 8 ) }
L:1/8
Q:1/4=120
M:4/4
K:G
V:1 treble nm="Midi_74"
V:2 treble 
V:3 bass nm="Midi_74"
V:4 bass 
V:5 treble nm="Org."
V:6 treble 
V:7 bass 
V:8 bass 
V:1
 B8 | E4 (c2 A2) | (G4 F4) || G8 | G4 F4 | E4 E4 | D8 || d8 | G4 (e2 c2) | (B4 A4) || c8 | c4 B4 | %12
"^William Henry Havergal\n(1793-1870)" A4 A4 | G8 |] %14
V:2
 D8 | C4 E4 | D8 || B,8 | E4 D4 | D4 ^C4 | D8 || G8 | G4 G4 | (G4 F4) || E8 | (D2 F2) G4 | G4 F4 | %13
 G8 |] %14
V:3
 G,8 | G,4 C4 | (B,4 A,4) || G,8 | (A,2 ^C2) D4 | B,4 (A,2 G,2) | F,8 || G,8 | G,4 (C2 E2) | D8 || %10
 (C6 B,2) | A,4 G,4 | E4 (D2 C2) | B,8 |] %14
V:4
 G,,8 | C,4 A,,4 | D,8 || (E,6 D,2) | (^C,2 A,,2) B,,4 | G,,4 A,,4 | D,8 || B,,8 | E,4 C,4 | D,8 || %10
 (A,6 G,2) | (F,2 D,2) E,4 | C,4 D,4 | G,,8 |] %14
V:5
 B8 | E4 c2 A2 | [B,G]4 [A,F]4 || G8 | [EG]4 F4 | E4 E4 | D8 || d8 | G4 e2 c2 | [GB]4 [FA]4 || c8 | %11
 [Ac]4 B4 | A4 [FA]4 | G8 |] %14
V:6
 [DG]8 | C4 [CE]4 | D8 || [G,B,]8 | A,2 ^C2 D4 | [B,D]4 ^C4 | D8 || [DG]8 | E4 [EG]4 | D8 || %10
 [EA]8 | D2 F2 G4 | [EG]4 D2 C2 | [B,G]8 |] %14
V:7
 x8 | x8 | x8 || x8 | x8 | x4 A,2 G,2 | F,8 || x8 | x8 | x8 || x8 | x8 | x8 | x8 |] %14
V:8
 G,,8 | C,4 A,,4 | D,8 || E,6 D,2 | ^C,2 A,,2 B,,4 | G,,4 A,,4 | D,8 || B,,8 | E,4 C,4 | D,8 || %10
 A,6 G,2 | F,2 D,2 E,4 | C,4 D,4 | G,,8 |] %14

